X:1
T:Title
%%score { ( 1 4 ) | ( 2 3 ) }
L:1/8
M:6/8
K:Ab
V:1 treble nm="Grand Piano"
V:4 treble 
V:2 bass 
V:3 bass 
V:1
 z3 z2[Q:1/4=81] [CE] | [CE][_C=D][=CE] [DF]2 [CE] | [EA]2 B c2 c/d/ | ec[A,EA] [A,=DF]2 [DB] | %4
[M:5/8] B-B- B3 |[M:1/8] c/d/ |[M:3/4] e2 cc B[C_GA] | .[DFA]2 [F=Ac][FBd] [E_Ac][DFB] | %8
 [CEA]E c c2 B |[M:5/8] [CA]-[CA]- [CA]3 |[M:1/8] [Ec] |[M:3/4] [Ec][DB] [CA][FA] G[A,DF] | %12
 A,2 A, [CEA]2 [EGB] | cd ee dc |[M:5/8] [GB]-[GB]- [GB]3 |[M:1/8] c/d/ |[M:3/4] e2 cc B[C_GA] | %17
 .[DFA]2 [F=Ac][FBd] [E_Ac][DFB] | [CEA]E c c2 B |[M:5/8] [CA]-[CA]- [CA]3 |] %20
V:2
 z3 z2 [A,,A,] | [A,,A,]2 [A,,A,] [A,,A,]2 [A,,A,] | z3 z2 [A,E] | .E3 z3 | %4
[M:5/8] [E,G,E]-[E,G,E]- [E,G,E]3 |[M:1/8] [A,E] |[M:3/4][K:treble] z2 z E z2 | z B C,B,, C,D, | %8
 z A, [E,A,E] [E,A,E]2 [E,G,D] |[M:5/8] [A,,A,]-[A,,A,]- [A,,A,]3 |[M:1/8] [A,,A,] | %11
[M:3/4] z2 z .[D,A,]3 | A,,C, E, A,2 E, | z2[K:treble] z .E3 |[M:5/8][K:bass] E,G,B, E,2 | %15
[M:1/8][K:treble] E/ z/ |[M:3/4] z2 z E z2[K:bass] | z[K:treble] B[K:bass] C,B,, C,D, | %18
 z [A,C] [E,A,E] [E,A,E]2 [E,G,D] |[M:5/8] [A,,A,]-[A,,A,]- [A,,A,]3 |] %20
V:3
 x6 | x6 | [C,A,]2 [E,G,E] [A,E]2 z/ B,/ | [A,C]A,C, B,,2 [B,,A,] |[M:5/8] x5 |[M:1/8] z/ B,/ | %6
[M:3/4][K:treble] [A,CE]2 [A,EA][A,A]- [A,DA]A, | D,2 z2 z2 | E,2 z2 z2 |[M:5/8] x5 |[M:1/8] x | %11
[M:3/4] [A,,A,]2 .[A,,A,]2 ED, | x6 | A,B,[K:treble] [CEA][CA] [B,G][A,EA] |[M:5/8][K:bass] x5 | %15
[M:1/8][K:treble] [A,A]/-[A,DA]/ |[M:3/4] [A,CA]2 [A,EA][A,A]- [A,DA][K:bass]A, | %17
 D,2[K:treble][K:bass] z2 z2 | E,2 z2 z2 |[M:5/8] x5 |] %20
V:4
 x6 | x6 | x6 | x6 |[M:5/8] x5 |[M:1/8] x |[M:3/4] x6 | x6 | x6 |[M:5/8] x5 |[M:1/8] x | %11
[M:3/4] x6 | [CE]4 z2 | [EA]2 z2 z2 |[M:5/8] E2 E E2 |[M:1/8] x |[M:3/4] x6 | x6 | x6 | %19
[M:5/8] x5 |] %20

